X:1
T:MENUETT No. 1 mit TRIO
T:ALLEGRO in F MAJOR
T:für das Pianoforte
T:W. A. Mozart
T:Köch. Verz. No. 1c
C:W. A. Mozart
Z:Köch. Verz. No. 1
%%score { 1 | 2 }
L:1/8
Q:1/4=83
M:2/4
K:F
V:1 alto1 nm="Piano" snm="Pno."
V:2 bass 
V:1
 c | ff gg | a>b !wedge!c'(c'/a/) | !wedge!g(b/g/) fe | f3 :: (c'/a/) | %6
 !wedge!g(c'/a/) !wedge!g(c'/a/) | g>f !wedge!e(c'/a/) | !wedge!g(c'/a/) !wedge!g(c'/a/) | g>f ec | %10
 ff gg | a>b !wedge!c'(c'/a/) | !wedge!g(b/g/) fe | f3 :| %14
V:2
 z | z F,E,D, | F,>G, A,A, | B,B,CC, | F,C,F,, :: F, | E,F, E,F, | E,>D, C,F, | E,F, E,F, | %9
 E,>D, C,2 | F,F, E,E, | F,>G, A,A, | B,B,CC, | F,C,F,, :| %14

